icons/desktop/16/svg/accessibility-16.svg

<svg width="16" height="16" viewBox="0 0 16 16" fill="none" xmlns="http://www.w3.org/2000/svg">
<g clip-path="url(#clip0_13802_57542)">
<path d="M11.6611 5.61133C11.9991 5.55739 12.3161 5.78608 12.3711 6.12305C12.426 6.46089 12.1961 6.77978 11.8594 6.83496C10.9924 6.94096 10.121 7.00113 9.25 7.03613V9.05566L10.1016 12.2412C10.1885 12.5751 9.98906 12.9168 9.65527 13.0039C9.32127 13.0909 8.97958 12.8906 8.89258 12.5566L8.1416 9.75098C8.11957 9.69107 8.06295 9.65139 7.99902 9.65137C7.93509 9.65137 7.87849 9.69108 7.85645 9.75098L7.10645 12.5537C7.01945 12.8877 6.67873 13.088 6.34473 13.001C6.01092 12.9139 5.81057 12.5722 5.89746 12.2383L6.74805 9.06348H6.75V7.03613C5.879 7.00013 5.00762 6.94194 4.14062 6.83594C3.80383 6.78077 3.57394 6.46089 3.62891 6.12402C3.6839 5.78704 4.00189 5.55736 4.33887 5.61133C6.77087 5.90133 9.22913 5.90133 11.6611 5.61133Z" fill="black"/>
<path d="M8 2.75C8.69036 2.75 9.25 3.30964 9.25 4C9.25 4.69036 8.69036 5.25 8 5.25C7.30964 5.25 6.75 4.69036 6.75 4C6.75 3.30964 7.30964 2.75 8 2.75Z" fill="black"/>
<path fill-rule="evenodd" clip-rule="evenodd" d="M8 0C12.4183 0 16 3.58172 16 8C16 12.4183 12.4183 16 8 16C3.58172 16 0 12.4183 0 8C0 3.58172 3.58172 0 8 0ZM8 1.5C4.41015 1.5 1.5 4.41015 1.5 8C1.5 11.5899 4.41015 14.5 8 14.5C11.5899 14.5 14.5 11.5899 14.5 8C14.5 4.41015 11.5899 1.5 8 1.5Z" fill="black"/>
</g>
<defs>
<clipPath id="clip0_13802_57542">
<rect width="16" height="16" fill="white"/>
</clipPath>
</defs>
</svg>

<!-- This Source Code Form is subject to the terms of the Mozilla Public
   - License, v. 2.0. If a copy of the MPL was not distributed with this
   - file, You can obtain one at http://mozilla.org/MPL/2.0/. -->
<svg xmlns="http://www.w3.org/2000/svg" width="16" height="16" fill="context-fill" fill-opacity="context-fill-opacity" viewBox="0 0 16 16">
    <g clip-path="url(#clip0_13802_57542)">
        <path d="M11.661 5.611a.62.62 0 0 1 .198 1.224c-.867.106-1.738.166-2.609.201v2.02l.852 3.185a.625.625 0 1 1-1.21.316l-.75-2.806a.152.152 0 0 0-.286 0l-.75 2.803a.624.624 0 1 1-1.209-.316l.851-3.175h.002V7.036a33 33 0 0 1-2.61-.2.621.621 0 0 1 .199-1.225c2.432.29 4.89.29 7.322 0M8 2.75a1.25 1.25 0 1 1 0 2.5 1.25 1.25 0 0 1 0-2.5" />
        <path fill-rule="evenodd" d="M8 0a8 8 0 1 1 0 16A8 8 0 0 1 8 0m0 1.5a6.5 6.5 0 1 0 0 13 6.5 6.5 0 0 0 0-13" clip-rule="evenodd" />
    </g>
</svg>
